assets/logo.svg

<svg width="136" height="40" viewBox="0 0 136 40" fill="none" xmlns="http://www.w3.org/2000/svg">
<path d="M8.01209 25.1181C9.5815 25.3995 11.0022 25.4659 12.5136 26.762C15.647 29.4489 15.012 34.2841 20.0564 36.459C24.369 38.3184 28.1535 34.9773 29.4815 32.6024C32.0703 27.9727 34 21.2171 34 14.0408C34 7.13998 31.8851 3.6551 27.6567 2.34481C23.4283 1.03452 14.8688 3.57813 7.62013 7.94774C1.83845 11.433 -1.06889 15.0729 0.359945 19.8754C1.46205 23.5798 5.20771 24.6153 8.01209 25.1181Z" fill="url(#paint0_linear_4142_6379)"/>
<path d="M54.7011 26.9773C54.853 27.4794 55.1654 27.9154 55.5888 28.2157C56.5047 28.7606 58.6164 28.3849 58.6164 28.3849V18.8493C58.6164 14.2011 54.6687 11.9596 50.9399 12.0051C48.9134 12.0298 46.4816 12.0381 44.9698 13.3384C44.3618 13.8668 43.7539 14.4612 44.2038 15.6707L44.8117 16.6325C46.0763 15.9101 48.7472 15.262 50.5549 15.3363C52.1274 15.4024 54.4215 16.3353 54.4215 18.3456C50.5346 16.6945 43 18.4695 43 23.2126C43 26.226 46.0682 28.7358 50.1698 28.7358C51.406 28.7358 53.7122 28.2322 54.7011 26.9773ZM46.9355 23.0846C46.9963 20.6986 52.4639 20.6697 54.4701 21.5779V24.0918C52.8975 25.743 46.8747 26.0072 46.9355 23.0846ZM62.9693 29C67.2007 26.6347 67.5533 23.935 67.7681 21.1403L68.0113 15.9266H73.6369V28.3932H77.8643V12.4756H66.5239C65.8162 12.4756 65.1374 12.7617 64.6366 13.271C64.1359 13.7802 63.854 14.4711 63.8529 15.1919L63.7962 20.7812C63.7556 22.0196 63.7151 23.2951 62.7788 24.6821C62.3106 25.3355 61.728 25.8953 61.0604 26.3333L62.0331 27.6749C62.5438 28.3808 62.9531 28.9835 62.9531 28.9835L62.9693 29ZM89.5168 12.0009C87.3006 11.9677 85.1615 12.8291 83.5667 14.3968C81.972 15.9646 81.0512 18.1114 81.0054 20.3684C80.9811 24.5005 84.2235 28.6987 89.5492 28.6987C91.8311 28.6987 95.0248 27.8731 96.9622 25.7719L95.649 24.3271C95.3734 24.0647 95.0213 23.901 94.6461 23.8608C94.2709 23.8206 93.893 23.906 93.5698 24.1042C90.7327 25.6027 85.6137 24.9298 85.2368 21.5325L97.7282 21.4416C97.785 20.7069 97.8093 20.5335 97.8093 20.034C97.8093 15.5758 94.0845 11.9803 89.5168 12.0092V12.0009ZM85.2368 18.7378C85.5772 16.6036 87.9118 15.6129 89.5492 15.6129C91.1866 15.6129 93.3347 16.5376 93.6752 18.7378H85.2368ZM130.773 12.4756V18.5975H124.053V12.4756H119.858V28.3932H124.053V22.2714H130.773V28.3932H135V12.4756H130.773ZM108.299 12.0051C106.272 12.0298 103.84 12.0381 102.328 13.3384C101.72 13.8668 101.113 14.4612 101.562 15.6707L102.166 16.6325C103.431 15.9101 106.106 15.262 107.909 15.3363C109.482 15.4024 111.78 16.3353 111.78 18.3456C107.893 16.6945 100.355 18.4695 100.355 23.2126C100.355 26.226 103.423 28.7358 107.524 28.7358C108.761 28.7358 111.067 28.2322 112.056 26.9773C112.208 27.4794 112.52 27.9154 112.943 28.2157C113.863 28.7606 115.975 28.3849 115.975 28.3849V18.8493C115.975 14.2011 112.027 11.9596 108.299 12.0051ZM111.808 24.0918C110.236 25.743 104.213 26.0072 104.274 23.0846C104.335 20.6986 109.802 20.6697 111.808 21.5779V24.0918Z" fill="white"/>
<defs>
<linearGradient id="paint0_linear_4142_6379" x1="30.4282" y1="4.62057" x2="10.7195" y2="29.2823" gradientUnits="userSpaceOnUse">
<stop stop-color="#6CC8F1"/>
<stop offset="0.297322" stop-color="#5B8FF4"/>
<stop offset="0.438145" stop-color="#5673F6"/>
<stop offset="0.599049" stop-color="#5458F7"/>
<stop offset="0.697775" stop-color="#6455F5"/>
<stop offset="1" stop-color="#A668ED"/>
</linearGradient>
</defs>
</svg>

<svg xmlns="http://www.w3.org/2000/svg" fill="none" viewBox="0 0 136 40"><path fill="url(#a)" d="M8.012 25.118c1.57.282 2.99.348 4.502 1.644 3.133 2.687 2.498 7.522 7.542 9.697 4.313 1.86 8.098-1.482 9.425-3.857C32.072 27.972 34 21.217 34 14.041c0-6.901-2.115-10.386-6.343-11.696-4.229-1.31-12.788 1.233-20.037 5.603-5.782 3.485-8.689 7.125-7.26 11.927 1.102 3.705 4.848 4.74 7.652 5.243Z"/><path fill="#fff" d="M54.701 26.977c.152.502.464.938.888 1.239.916.545 3.027.169 3.027.169v-9.536c0-4.648-3.947-6.89-7.676-6.844-2.027.025-4.458.033-5.97 1.333-.608.529-1.216 1.123-.766 2.333l.608.962c1.264-.723 3.935-1.371 5.743-1.297 1.572.066 3.867 1 3.867 3.01C50.535 16.695 43 18.469 43 23.213c0 3.013 3.068 5.523 7.17 5.523 1.236 0 3.542-.504 4.531-1.759Zm-7.766-3.892c.061-2.386 5.529-2.415 7.535-1.507v2.514c-1.572 1.651-7.595 1.915-7.535-1.007ZM62.97 29c4.232-2.365 4.584-5.065 4.8-7.86l.242-5.213h5.626v12.466h4.227V12.476h-11.34c-.708 0-1.387.286-1.887.795-.501.51-.783 1.2-.784 1.92l-.057 5.59c-.04 1.239-.08 2.514-1.017 3.901a6.506 6.506 0 0 1-1.719 1.651l.973 1.342c.51.706.92 1.308.92 1.308l.016.017Zm26.548-17a8.309 8.309 0 0 0-5.95 2.397 8.62 8.62 0 0 0-2.562 5.971c-.024 4.133 3.219 8.33 8.544 8.33 2.282 0 5.476-.825 7.413-2.926l-1.313-1.445a1.71 1.71 0 0 0-2.08-.223c-2.836 1.499-7.955.826-8.332-2.572l12.491-.09c.057-.735.081-.909.081-1.408 0-4.458-3.724-8.054-8.292-8.025v-.008Zm-4.28 6.738c.34-2.134 2.675-3.125 4.312-3.125 1.638 0 3.786.925 4.126 3.125h-8.438Zm45.536-6.262v6.121h-6.72v-6.121h-4.195v15.917h4.195v-6.122h6.72v6.122H135V12.476h-4.227Zm-22.474-.47c-2.027.024-4.459.032-5.971 1.332-.608.529-1.215 1.123-.766 2.333l.604.962c1.265-.723 3.94-1.371 5.743-1.297 1.573.066 3.871 1 3.871 3.01-3.887-1.651-11.425.123-11.425 4.867 0 3.013 3.068 5.523 7.169 5.523 1.237 0 3.543-.504 4.532-1.759.152.502.464.938.887 1.239.92.545 3.032.169 3.032.169v-9.536c0-4.648-3.948-6.89-7.676-6.844Zm3.509 12.086c-1.572 1.651-7.595 1.915-7.534-1.007.061-2.386 5.528-2.415 7.534-1.507v2.514Z"/><defs><linearGradient id="a" x1="30.428" x2="10.72" y1="4.621" y2="29.282" gradientUnits="userSpaceOnUse"><stop stop-color="#6CC8F1"/><stop offset=".297" stop-color="#5B8FF4"/><stop offset=".438" stop-color="#5673F6"/><stop offset=".599" stop-color="#5458F7"/><stop offset=".698" stop-color="#6455F5"/><stop offset="1" stop-color="#A668ED"/></linearGradient></defs></svg>
